X: 1
T: Christmas in Killarney    [D]
C: John Redmond, James Cavanaugh, Frank Weldon 1950
R: jig
Z: 2018 John Chambers <jc:trillian.mit.edu>
M: 6/8
L: 1/8
P: AABx4+A'
K: D
% %barnumbers 4
% %continueall
"^A"[|] B |\
"D"A2D D2D | A2D D2D | "G"BAG BAG | "D"A2D D2 ||\
D | "G"B2c d2c | "D"B2A "(Bm)"F2D | "E7"EFE "A7"D2C | "D"D3 z2 :|
"^B"[| F |\
"Bm"F2B B2c | d2B z2c | "G"d2c B2c | "Bm"F3 z2 ||\
F | "A"E2A A2B | c2E E2E | "Bm"d2d "E7"c2B | "A"A3 "A7"z2 |]
%%sep 5 5 10
"^A'"[| B |\
"D"A2D D2D | A2D D2D | "G"BAG BAG | "D"A2D D2 ||\
D | "G"B2c d2c | "D"B2A z2D | F2F "D7"G2A | "G"B3 z2 ||
c | "G"d2c "G#dim"d2B | "D"A2d "Bm"z2D | "E7"EFE "A7"D2C | "D"D3 z2 |]\
x6 x6 x6 x6 x6 x6 x6 x6
